X: 2009
T: Humours of West Philadelphia
R: reel
C: Rick Gagne
N: 1987 on whistle
Q: 1/8=340
M: 4/4
K: Amix
ed | "A"c/B/AAc ecAc | "G"BGGF G2FG | "A"EAAB cBAc | "G"gfef g2fg | 
"A"a/g/fed ceAc | "G"BGGF G2FG | "A"EA~A2 cBAF | "Em"GEEG "A"A2 :|
ed | "A"ce~e2 ce~e2 | "G"gB~B2 gB~B2 | "A"ce~e2 ce~e2 | "G"g/f/edB "A"A2eg | 
"A"a/g/fed ceAc | "G"BGGF G2FG | "A"EA~A2 cBAF | "Em"GEEG "A"A2 :|
